!!!OTL: Die Gerettete.
!!!OTL-incipit: ALS ODILIA EIN KLEIN KIND WAR
!!!ARE: Europa, Mitteleuropa, Deutschland, Niederrhein
!!!SCT: Z1028
!!!TXL: @@DE
!!!YEM: Copyright 1995, estate of Helmut Schaffrath.
**kern	**text
*ICvox	*
*M3/4	*
*k[f#]	*
*e:	*
!LO:TX:a:t=Ʒur Blaubart-Sage, vom Niederrhein.	!
{8dL	Als
8gJ	.
8a	O-
=1	=1
4b/	-di-
8a	-lia
8cc/	ein
8b/	klein
8a	Kind
=2	=2
4.g}	war,
{8dL	als
8gJ	.
8a	O-
=3	=3
4b/	-di-
8a	-lia
8cc/	ein
8b/	klein
8a	Kind
=4	=4
4.b/}	war,
{8f#	da
8e	ſtarb
8f#	ihr
=5	=5
8gL	Va-
8eJ	.
8a	-ter
8b/	und
8g	Mut-
8f#	-ter
=6	=6
4.e}	ab,
{8d#	da
8e	ſtarb
8f#	ihr
=7	=7
8gL	Va-
8eJ	.
8a	-ter
8b/	und
8g	Mut-
8f#	-ter
=8	=8
4e	ab.
8r}	.
==	==
!!!Ag: Romanze, Ballade, Tod, Blaubart - Sage
!!!ONB: ESAC (Essen Associative Code) Database: ZUCCAL
!!!AMT: simple triple
!!!AIN: vox
!!!EED: Helmut Schaffrath
!!!EEV: 1.0
!!!GTL: I. Volks- Leuschen.
!!!URL-scan: https://www.digitale-sammlungen.de/de/view/bsb11160573?page=72
!!!ENC: Anna Maria Matuszewska
!!!EEV: 2025/03/02
*-	*-
